X:386
T:Whinhams Reel
R:hp 32 reel
S:Trad
M:4/4
L:1/4
Q:1/4=140
F:http://banjolin.co.uk/tunes/abcs/winhams.abc
K:G
D|:G/2A/2B/2A/2 GD|EG DG|EG DG|BA AB/2A/2|
|G/2A/2B/2A/2 GD|EG DG|EG Dd|1 BG G D:|2 BG Gd|
|:gG Bg|fA ce|dD FA|c/2B/2A/2B/2 c/2d/2e/2f/2|
gG Bg|fA ce|dD Fd|1 BG G d:|2 BG G D|

